; Start G-code
G21 ; Set units to millimeters
G90 ; Use absolute positioning
M82 ; Use absolute extrusion mode
M104 S200 ; Set hotend temperature to 200 C
M140 S60  ; Set bed temperature to 60 C
M190 S60  ; Wait for bed temperature to reach 60 C
M109 S200 ; Wait for hotend temperature to reach 200 C
G28  ; Home all axes
G29  ; Auto bed leveling (if supported)
G92 E0 ; Reset extruder position
G1 Z0.2 F3000 ; Move nozzle to 0.2mm above bed
G1 X0 Y0 F5000 ; Move to start position
G1 E5 F1500 ; Prime the extruder

; Printing first layer
G1 X20 Y0 Z0.2 F1200 E10 ; Draw first line
G1 X20 Y20 E20 ; Draw second line
G1 X0 Y20 E30 ; Draw third line
G1 X0 Y0 E40 ; Complete square
G92 E0 ; Reset extruder

; Printing additional layers
G1 Z0.4 ; Move up a layer
G1 X20 Y0 E5 ; Second layer line
G1 X20 Y20 E10
G1 X0 Y20 E15
G1 X0 Y0 E20

; Repeat layers (this is usually generated by slicer software)
; ...
; End G-code
G1 Z10 F1500 ; Move nozzle up
G1 X0 Y0 F5000 ; Move to home position
M104 S0 ; Turn off hotend
M140 S0 ; Turn off bed
M107 ; Turn off fan
G28 X0 Y0 ; Home X and Y
M84 ; Disable motors